X: 22
T:Great Thirty-Eight, The
M:12/8
L:1/8
C:Comp. Dan Flynn
R:Slide
K:G
GFE[|D2G E2G D2G E2G|D2G BAG A3 AGE|!
D2G E2G D2G E2G|D2G AGF G3 GFE||!
D2G E2G D2G E2G|D2G BAG ABA AGE|!
D2G E2G D2G E2G|D2G AGF G3 G2A|]!
B2B BAG E2D DEG|E2D DEG A3 AGA|!
B2B BAG E2D DEG|E2G AGF G3 G2A||!
B2B BAG E2D DEG|E2D DEG ABA AGA|!
BBB BAG E2D DEG|E2G AGF G3 GAB|]!
A2A AGA B2A G2D|E2D EDG A3 A2G|!
A2A AGA B2A G2D|E2D EDF G3 GAB||!
A2A AGA B2A G2D|E2D EDG A3 A2G|!
A2A AGA B2A G2D|E2D EDF G3 GFE|]!
% Output from ABC2Win  Version 2.1 i on 11/22/2003
